X:1458
T:Was wolln wir auf den Abend tun
C:anon.
O:Germany
N:1603
Z:Transcribed by Frank Nordberg - http://www.musicaviva.com
F:http://abc.musicaviva.com/tunes/germany/was-wolln-wir-auf-den.abc
M:C
L:1/4
K:C
G|"C"ccdd|"C"ed/c/"G"d2|"C"ec"G7"Bc/d/|
w:Was wolln wir auf den A-bend_ tun? Schla-fen wolln wir_
"C"c3 z|"F"ff"G"dd|"C"ed/c/"G"dd|"Dm"ff"G"dd|
w:gahn. Schla-fen gahn ist wohl-ge--tan, sch\"on Jung-frau wollt ihr
"C"ed/c/"G"d2|"C"ec"G"Bc/d/|"C"c3|]
w:mit uns_ gahn? Schla-fen wolln wir_ gahn.
W:
W:Was wolln wir auf den Abend tun?
W:Schlafen wolln wir gahn.
W:Schlafen gahn ist wohlgetan,
W:sch\"on Jungfrau wollt ihr mit uns gahn?
W:Schlafen wolln wir gahn.
W:
W:
W:  From Musica Viva - http://www.musicaviva.com
W:  the Internet center for free sheet music downloads.


